X:0294
T:Well a go to Kelso.
M:6/8
L:1/8
Q:3/8=108
I: :: ::
Z:Jack Campin * www.campin.me.uk * 2009
K:G
 D    |G>AB g>ag|f>ed g2d| e/f/ge  dBG|A>BA c>de|
       G>AB g>ab|afd  g2d| e/f/ge  dBG|B3   g2 :|
(g/a/)|bgb  afa |geg  dBd| G>AB    gdB|AaA  c>de|
       G>AB gag |afd  g2d|(e/f/g)e dBG|B3   g2 :|

